dist/assets/img/vkontakte_icon.svg

<svg width="30" height="30" viewBox="0 0 30 30" fill="none" xmlns="http://www.w3.org/2000/svg">
<path d="M15 0C6.71572 0 0 6.71572 0 15C0 23.2843 6.71572 30 15 30C23.2843 30 30 23.2843 30 15C30 6.71572 23.2843 0 15 0ZM23.8027 20.4809L21.2152 20.5164C21.2152 20.5164 20.6586 20.6269 19.9283 20.1217C18.9592 19.4565 18.0474 17.7296 17.3369 17.9506C16.6264 18.1716 16.6382 19.7269 16.6382 19.7269C16.6405 19.9093 16.5845 20.0878 16.4784 20.2362C16.329 20.3641 16.1448 20.4445 15.9495 20.4671H14.8027C14.8027 20.4671 12.237 20.6191 9.9968 18.2783C7.53363 15.7362 5.36455 10.6579 5.36455 10.6579C5.36455 10.6579 5.23682 10.3633 5.37639 10.1644C5.49703 9.99252 5.79457 9.97406 5.9448 9.96709C6.59244 9.9368 8.53822 9.94934 8.53822 9.94934C8.701 9.94529 8.81039 9.95385 9.01189 10.0421C9.1851 10.1277 9.31646 10.2552 9.40072 10.4605C9.70008 11.2059 10.0475 11.9312 10.4409 12.6316C11.5975 14.6309 12.1363 15.0671 12.529 14.8539C13.0995 14.5421 12.9238 12.0296 12.9238 12.0296C12.9238 12.0296 12.9238 11.1158 12.6356 10.7112C12.4187 10.4578 12.1128 10.2974 11.781 10.2632C11.6251 10.2414 11.8817 9.88025 12.2133 9.71842C12.7106 9.47367 13.5909 9.47367 14.629 9.47367C15.0859 9.45645 15.5429 9.50297 15.987 9.61184C16.9422 9.84275 16.6185 10.7309 16.6185 12.8664C16.6185 13.5493 16.4942 14.5125 16.9876 14.8401C17.2008 14.9763 17.7179 14.8598 19.0165 12.6572C19.4309 11.9283 19.7904 11.1697 20.0922 10.3874C20.1503 10.2631 20.2385 10.1553 20.3488 10.0736C20.4654 10.0155 20.5965 9.99293 20.7258 10.0085L23.6389 9.98871C23.6389 9.98871 24.5133 9.88412 24.6554 10.2808C24.7975 10.6775 24.3277 11.6624 23.1376 13.2413C21.1837 15.8466 20.9665 15.6097 22.5889 17.1077C24.1383 18.5466 24.46 19.2472 24.5133 19.3341C25.1566 20.3961 23.8027 20.4809 23.8027 20.4809Z" fill="white"/>
</svg>

<svg width="30" height="30" fill="none" xmlns="http://www.w3.org/2000/svg"><path d="M15 0C6.716 0 0 6.716 0 15c0 8.284 6.716 15 15 15 8.284 0 15-6.716 15-15 0-8.284-6.716-15-15-15zm8.803 20.48l-2.588.036s-.556.11-1.287-.394c-.969-.666-1.88-2.392-2.591-2.171-.71.22-.699 1.776-.699 1.776a.857.857 0 01-.16.51.988.988 0 01-.529.23h-1.146s-2.566.152-4.806-2.189c-2.463-2.542-4.632-7.62-4.632-7.62s-.128-.295.011-.494c.121-.171.419-.19.569-.197.647-.03 2.593-.018 2.593-.018a.943.943 0 01.474.093.768.768 0 01.389.418c.3.746.646 1.471 1.04 2.172 1.156 1.999 1.695 2.435 2.088 2.222.57-.312.395-2.824.395-2.824s0-.914-.288-1.319a1.3 1.3 0 00-.855-.448c-.156-.022.1-.383.432-.545.498-.244 1.378-.244 2.416-.244.457-.018.914.029 1.358.138.955.23.632 1.119.632 3.254 0 .683-.125 1.646.369 1.974.213.136.73.02 2.029-2.183.414-.729.773-1.487 1.075-2.27a.826.826 0 01.257-.313.667.667 0 01.377-.066l2.913-.02s.874-.104 1.016.293c.142.396-.327 1.381-1.517 2.96-1.954 2.606-2.172 2.369-.55 3.867 1.55 1.439 1.872 2.14 1.925 2.226.644 1.062-.71 1.147-.71 1.147z" fill="#fff"/></svg>
